resources/svg/skull-o.svg

<svg xmlns="http://www.w3.org/2000/svg" viewBox="0 0 15 15" fill="none"><path d="M3.5 11.5H4V11.191L3.72361 11.0528L3.5 11.5ZM2.05279 10.7764L2.27639 10.3292L2.27639 10.3292L2.05279 10.7764ZM12.9472 10.7764L12.7236 10.3292L12.7236 10.3292L12.9472 10.7764ZM11.5 11.5L11.2764 11.0528L11 11.191V11.5H11.5ZM7.5 9.5L7.85355 9.14645C7.65829 8.95118 7.34171 8.95118 7.14645 9.14645L7.5 9.5ZM2 9.88197V6.5H1V9.88197H2ZM13 6.5V9.88197H14V6.5H13ZM3.72361 11.0528L2.27639 10.3292L1.82918 11.2236L3.27639 11.9472L3.72361 11.0528ZM12.7236 10.3292L11.2764 11.0528L11.7236 11.9472L13.1708 11.2236L12.7236 10.3292ZM4 12.5V11.5H3V12.5H4ZM11 11.5V12.5H12V11.5H11ZM9.5 14H5.5V15H9.5V14ZM11 12.5C11 13.3284 10.3284 14 9.5 14V15C10.8807 15 12 13.8807 12 12.5H11ZM13 9.88197C13 10.0714 12.893 10.2445 12.7236 10.3292L13.1708 11.2236C13.679 10.9695 14 10.4501 14 9.88197H13ZM7.5 1C10.5376 1 13 3.46243 13 6.5H14C14 2.91015 11.0899 0 7.5 0V1ZM3 12.5C3 13.8807 4.11929 15 5.5 15V14C4.67157 14 4 13.3284 4 12.5H3ZM2 6.5C2 3.46243 4.46243 1 7.5 1V0C3.91015 0 1 2.91015 1 6.5H2ZM1 9.88197C1 10.4501 1.321 10.9695 1.82918 11.2236L2.27639 10.3292C2.107 10.2445 2 10.0714 2 9.88197H1ZM4.5 8C4.22386 8 4 7.77614 4 7.5H3C3 8.32843 3.67157 9 4.5 9V8ZM5 7.5C5 7.77614 4.77614 8 4.5 8V9C5.32843 9 6 8.32843 6 7.5H5ZM4.5 7C4.77614 7 5 7.22386 5 7.5H6C6 6.67157 5.32843 6 4.5 6V7ZM4.5 6C3.67157 6 3 6.67157 3 7.5H4C4 7.22386 4.22386 7 4.5 7V6ZM10.5 8C10.2239 8 10 7.77614 10 7.5H9C9 8.32843 9.67157 9 10.5 9V8ZM11 7.5C11 7.77614 10.7761 8 10.5 8V9C11.3284 9 12 8.32843 12 7.5H11ZM10.5 7C10.7761 7 11 7.22386 11 7.5H12C12 6.67157 11.3284 6 10.5 6V7ZM10.5 6C9.67157 6 9 6.67157 9 7.5H10C10 7.22386 10.2239 7 10.5 7V6ZM6.85355 10.8536L7.85355 9.85355L7.14645 9.14645L6.14645 10.1464L6.85355 10.8536ZM7.14645 9.85355L8.14645 10.8536L8.85355 10.1464L7.85355 9.14645L7.14645 9.85355Z" fill="black"/></svg>

<svg xmlns="http://www.w3.org/2000/svg" viewBox="0 0 15 15" fill="none"><path d="M3.5 11.5H4v-.309l-.276-.138-.224.447zm-1.447-.724l.223-.447-.223.447zm10.894 0l-.223-.447.223.447zM11.5 11.5l-.224-.447-.276.138v.309h.5zm-4-2l.354-.354a.5.5 0 00-.708 0L7.5 9.5zM2 9.882V6.5H1v3.382h1zM13 6.5v3.382h1V6.5h-1zm-9.276 4.553l-1.448-.724-.447.895 1.447.723.448-.894zm9-.724l-1.448.724.448.894 1.447-.723-.447-.895zM4 12.5v-1H3v1h1zm7-1v1h1v-1h-1zM9.5 14h-4v1h4v-1zm1.5-1.5A1.5 1.5 0 019.5 14v1a2.5 2.5 0 002.5-2.5h-1zm2-2.618a.5.5 0 01-.276.447l.447.895A1.5 1.5 0 0014 9.882h-1zM7.5 1A5.5 5.5 0 0113 6.5h1A6.5 6.5 0 007.5 0v1zM3 12.5A2.5 2.5 0 005.5 15v-1A1.5 1.5 0 014 12.5H3zm-1-6A5.5 5.5 0 017.5 1V0A6.5 6.5 0 001 6.5h1zM1 9.882a1.5 1.5 0 00.83 1.342l.446-.895A.5.5 0 012 9.882H1zM4.5 8a.5.5 0 01-.5-.5H3A1.5 1.5 0 004.5 9V8zm.5-.5a.5.5 0 01-.5.5v1A1.5 1.5 0 006 7.5H5zM4.5 7a.5.5 0 01.5.5h1A1.5 1.5 0 004.5 6v1zm0-1A1.5 1.5 0 003 7.5h1a.5.5 0 01.5-.5V6zm6 2a.5.5 0 01-.5-.5H9A1.5 1.5 0 0010.5 9V8zm.5-.5a.5.5 0 01-.5.5v1A1.5 1.5 0 0012 7.5h-1zm-.5-.5a.5.5 0 01.5.5h1A1.5 1.5 0 0010.5 6v1zm0-1A1.5 1.5 0 009 7.5h1a.5.5 0 01.5-.5V6zm-3.646 4.854l1-1-.708-.708-1 1 .708.708zm.292-1l1 1 .708-.708-1-1-.708.708z" fill="currentColor"/></svg>
